X: 35576
T: Ryan's Rant
R: reel
M: 4/4
K: Gdorian
A|B2 GA Bcdc|BDGB AFFA|B2 GA Bcdg|fdcB AFFA|
B2 GA Bcdc|BDGB AFFA|B2 GA Bcde|fdcB AFFA|
|:B2 fB gBfB|B2 fB cAFA|B2 fB gBfB|cAFA BGGA|
B2 fB gBfB|B2 fB cAFA|GBdg abag|fdcB AFFA:|

